Adwaita++-Dark/actions/22/view-refresh.svg

<svg height="22" viewBox="0 0 22 22" width="22" xmlns="http://www.w3.org/2000/svg">
  <path d="m8 1.015625c-3.866 0-7 3.134-7 7s3.134 7 7 7c3.1748 0 5.86145-2.1032 6.71875-5h-2.15625c-.77427 1.7595-2.5168 3-4.5625 3-2.7614 0-5-2.2386-5-5s2.2386-5 5-5c1.3816 0 2.615525.575025 3.515625 1.484375l-2.5097656 2.515625h5.9999996v-6l-2.052734 2.0527344c-1.27-1.265-3.0192187-2.0527344-4.9492188-2.0527344z" fill="#e6ddff" transform="translate(3 3)"/>
</svg>

<svg xmlns="http://www.w3.org/2000/svg" width="22" height="22" viewBox="0 0 22 22">
 <defs>
  <style id="current-color-scheme" type="text/css">
   .ColorScheme-Text { color:#E6DDFF; } .ColorScheme-Highlight { color:#4285f4; }
  </style>
 </defs>
 <path style="fill:currentColor" class="ColorScheme-Text" d="M 8 1.015625 C 4.134 1.015625 1 4.149625 1 8.015625 C 1 11.881625 4.134 15.015625 8 15.015625 C 11.1748 15.015625 13.86145 12.912425 14.71875 10.015625 L 12.5625 10.015625 C 11.78823 11.775125 10.0457 13.015625 8 13.015625 C 5.2386 13.015625 3 10.777025 3 8.015625 C 3 5.254225 5.2386 3.015625 8 3.015625 C 9.3816 3.015625 10.615525 3.59065 11.515625 4.5 L 9.0058594 7.015625 L 15.005859 7.015625 L 15.005859 1.015625 L 12.953125 3.0683594 C 11.683125 1.8033594 9.9339063 1.015625 8.0039062 1.015625 L 8 1.015625 z" transform="translate(3 3)"/>
</svg>
